src/images/trading_app/purchase/trade_types/ic_fall_light.svg

<?xml version="1.0" encoding="UTF-8"?>
<svg width="16px" height="16px" viewBox="0 0 16 16" version="1.1" xmlns="http://www.w3.org/2000/svg" xmlns:xlink="http://www.w3.org/1999/xlink">
    <!-- Generator: Sketch 50.2 (55047) - http://www.bohemiancoding.com/sketch -->
    <title>icons/trade types/light/rise-fall/ic-light-fall</title>
    <desc>Created with Sketch.</desc>
    <defs></defs>
    <g id="icons/trade-types/light/rise-fall/ic-light-fall" stroke="none" stroke-width="1" fill="none" fill-rule="evenodd">
        <g id="binary/icons/fall/fall-off" fill="#2A3052">
            <g id="Group-Copy">
                <rect id="border" opacity="0" x="0" y="0" width="16" height="16"></rect>
                <path d="M11.6203717,12.3253957 C11.8000828,12.5350586 12.1157328,12.5593394 12.3253957,12.3796283 C12.5350586,12.1999172 12.5593394,11.8842672 12.3796283,11.6746043 L6.3796283,4.67460431 C6.20419798,4.46993561 5.89810162,4.44117821 5.68762073,4.609591 L3.18762073,6.60992444 C2.97200379,6.78244675 2.93706869,7.09709578 3.109591,7.31271272 C3.28211331,7.52832965 3.59676234,7.56326475 3.81237927,7.39074244 L5.93494952,5.69240315 L11.6203717,12.3253957 Z" id="Path" fill-rule="nonzero"></path>
                <path d="M12,12 L10.5,12 C10.2238576,12 10,12.2238576 10,12.5 C10,12.7761424 10.2238576,13 10.5,13 L12.5,13 C12.7761424,13 13,12.7761424 13,12.5 L13,10.5 C13,10.2238576 12.7761424,10 12.5,10 C12.2238576,10 12,10.2238576 12,10.5 L12,12 Z" id="Rectangle" fill-rule="nonzero"></path>
            </g>
        </g>
    </g>
</svg>

<svg width="16" height="16" viewBox="0 0 16 16" xmlns="http://www.w3.org/2000/svg"><title>icons/trade types/light/rise-fall/ic-light-fall</title><g fill-rule="nonzero" fill="#2A3052"><path d="M11.62 12.325a.5.5 0 0 0 .76-.65l-6-7a.5.5 0 0 0-.692-.065l-2.5 2a.5.5 0 0 0 .624.78l2.123-1.698 5.685 6.633z"/><path d="M12 12h-1.5a.5.5 0 1 0 0 1h2a.5.5 0 0 0 .5-.5v-2a.5.5 0 1 0-1 0V12z"/></g></svg>
